X:541
T:Arran Air
M:2/4
L:1/16
Q:100
B:O'Neill's 541
N:"Moderate"
Z:Transcribed by Dave Wooldridge
K:D
(AF) \
| D2(FG) A2(Bc) | (de)(fd) e2(dB) | A2(AB) (AF) (de) | f2e2 e4 (AF) |
D2(FG) A2(Bc) | (de)(fd) e2(dB) | A2(AB) (AF)(DF) | E2D2 D4 ||
(AF) \
| (AB)(de) f2(ef) | gefd e2(de) | f2e2 (dB)(AF) | F2E2 E2(AF) |
D2(FG) A2(Bc) | (de)(fd) e2(dB) | A2(AB) (AF)(DF) | E2D2 D4 ||


